app/assets/images/remix_icon/health/heart-pulse-fill.svg

<svg viewBox="0 0 24 24" xmlns="http://www.w3.org/2000/svg"><path d="M16.5 3C19.5376 3 22 5.5 22 9C22 16 14.5 20 12 21.5C10.0224 20.3135 4.91625 17.5626 2.8685 13L7.56619 13L8.5 11.4437L11.5 16.4437L13.5662 13H17V11H12.4338L11.5 12.5563L8.5 7.55635L6.43381 11L2.21024 10.9999C2.07418 10.3626 2 9.69615 2 9C2 5.5 4.5 3 7.5 3C9.35997 3 11 4 12 5C13 4 14.64 3 16.5 3Z"/></svg>

<svg xmlns="http://www.w3.org/2000/svg" viewBox="0 0 24 24">
    <g>
        <path fill="none" d="M0 0H24V24H0z"/>
        <path d="M16.5 3C19.538 3 22 5.5 22 9c0 7-7.5 11-10 12.5-1.978-1.187-7.084-3.937-9.132-8.5h4.698l.934-1.556 3 5L13.566 13H17v-2h-4.566l-.934 1.556-3-5L6.434 11H2.21C2.074 10.363 2 9.696 2 9c0-3.5 2.5-6 5.5-6C9.36 3 11 4 12 5c1-1 2.64-2 4.5-2z"/>
    </g>
</svg>
